X:491
T: Das alte Weib (197d), S. 431
N: T0379
O: Luxemburg
S: Singendes Volk, Esch-Alzette, 1937 posth.]
N: Heffingen, hhh Nikolaus Ewen, 2.6.1935
R: Hochzeits-, Ehestandslied]
M: 2/4
L: 1/8
K: F
c | dcBG | FAA
A | BBBd | c2z
c | dcBG | FAA
A | GGcc | F2z
c | dcBG | FAAA | BBBd | cz2
c | dcBG | FAA
A | GGcc | F2z

@@@ Tune index: 8545
